;START_OF_HEADER
;HEADER_VERSION:0.1
;FLAVOR:Griffin
;GENERATOR.NAME:Cura_SteamEngine
;GENERATOR.VERSION:5.5.0
;GENERATOR.BUILD_DATE:2023-10-25
;TARGET_MACHINE.NAME:Ultimaker 3 Extended
;EXTRUDER_TRAIN.0.INITIAL_TEMPERATURE:205
;EXTRUDER_TRAIN.0.MATERIAL.VOLUME_USED:24000
;EXTRUDER_TRAIN.0.MATERIAL.GUID:506c9f0d-e3aa-4bd4-b2d2-23e2425b1aa9
;EXTRUDER_TRAIN.0.NOZZLE.DIAMETER:0.4
;EXTRUDER_TRAIN.0.NOZZLE.NAME:AA 0.4
;BUILD_PLATE.INITIAL_TEMPERATURE:60
;PRINT.TIME:8465
;PRINT.GROUPS:1
;PRINT.SIZE.MIN.X:9
;PRINT.SIZE.MIN.Y:6
;PRINT.SIZE.MIN.Z:0.2
;PRINT.SIZE.MAX.X:211.672
;PRINT.SIZE.MAX.Y:142.132
;PRINT.SIZE.MAX.Z:25
;SLICE_UUID:12b846e0-215b-4bb7-901c-7f7c2e3d18a2
;END_OF_HEADER
;Generated with Cura_SteamEngine 5.5.0
T0
M82 ;absolute extrusion mode

G92 E0
M190 S60
M109 S205
G0 F15000 X9 Y6 Z2
G280
G1 F1500 E-6.5
;LAYER_COUNT:115
;LAYER:0
M106 S255
M204 S1000
M205 X20 Y20
G1 F600 Z2.2
G0 F15000 X27.454 Y70.847 Z2.2
;TYPE:SKIRT
G1 F600 Z0.2
G1 F1500 E0
G1 F1800 X104.883 Y70.848 E0.97099
G1 X107.434 Y71.608 E1.00437
G1 X108.379 Y72.18 E1.01822
G1 X109.88 Y73.636 E1.04444
G1 X111.005 Y75.431 E1.07101
G1 X111.642 Y77.564 E1.09893
G1 X111.642 Y135.244 E1.82225
G1 X111.134 Y137.338 E1.84928
G1 X109.742 Y139.565 E1.88221
G1 X107.61 Y141.336 E1.91697
G1 X104.835 Y142.131 E1.95317
G1 X27.452 Y142.132 E2.92358
G1 X24.758 Y140.845 E2.96102
G1 X23.599 Y139.959 E2.97931
G1 X22.233 Y138.072 E3.00853
G1 X21.357 Y135.66 E3.04071
G1 X21.358 Y77.319 E3.77233
G1 X22.233 Y74.909 E3.80448
G1 X23.562 Y73.065 E3.83298
G1 X24.742 Y72.136 E3.85182
G1 X27.454 Y70.847 E3.88947
G0 F15000 X27.544 Y71.247
G1 F1800 X104.826 Y71.248 E4.85862
G1 X107.27 Y71.976 E4.8906
G1 X108.134 Y72.499 E4.90326
G1 X109.566 Y73.888 E4.92828
G1 X110.637 Y75.597 E4.95357
G1 X111.242 Y77.622 E4.98007
G1 X111.242 Y135.195 E5.70206
G1 X110.76 Y137.182 E5.7277
G1 X109.438 Y139.297 E5.75898
G1 X107.419 Y140.974 E5.79189
G1 X104.777 Y141.731 E5.82636
G1 X27.542 Y141.732 E6.79491
G1 X24.969 Y140.503 E6.83067
G1 X23.887 Y139.676 E6.84775
G1 X22.591 Y137.885 E6.87547
G1 X21.757 Y135.589 E6.90611
G1 X21.758 Y77.389 E7.63596
G1 X22.59 Y75.097 E7.66653
G1 X23.854 Y73.344 E7.69364
G1 X24.953 Y72.479 E7.71117
G1 X27.544 Y71.247 E7.74715
G0 F15000 X27.634 Y71.647
G1 F1800 X104.769 Y71.648 E8.71445
G1 X107.106 Y72.344 E8.74503
G1 X107.886 Y72.816 E8.75647
G1 X109.254 Y74.143 E8.78037
G1 X110.27 Y75.764 E8.80436
G1 X110.842 Y77.679 E8.82942
G1 X110.842 Y135.146 E9.55008
G1 X110.386 Y137.026 E9.57434
G1 X109.134 Y139.029 E9.60396
G1 X107.228 Y140.612 E9.63503
G1 X104.719 Y141.331 E9.66776
G1 X27.632 Y141.332 E10.63446
G1 X25.18 Y140.161 E10.66854
G1 X24.177 Y139.394 E10.68437
G1 X22.948 Y137.696 E10.71066
G1 X22.157 Y135.518 E10.73971
G1 X22.158 Y77.46 E11.46778
G1 X22.948 Y75.284 E11.49681
G1 X24.144 Y73.625 E11.52246
G1 X25.166 Y72.82 E11.53877
G1 X27.634 Y71.647 E11.57304
G0 F15000 X27.724 Y72.047
G1 F1800 X104.712 Y72.048 E12.5385
G1 X106.942 Y72.712 E12.56768
G1 X107.638 Y73.133 E12.57788
G1 X108.942 Y74.398 E12.60066
G1 X109.903 Y75.931 E12.62335
G1 X110.442 Y77.736 E12.64697
G1 X110.442 Y135.097 E13.3663
G1 X110.012 Y136.87 E13.38918
G1 X108.83 Y138.761 E13.41715
G1 X107.037 Y140.25 E13.44637
G1 X104.661 Y140.931 E13.47737
G1 X27.722 Y140.932 E14.44221
G1 X25.391 Y139.819 E14.47461
G1 X24.465 Y139.111 E14.48922
G1 X23.306 Y137.509 E14.51402
G1 X22.557 Y135.447 E14.54153
G1 X22.558 Y77.531 E15.26782
G1 X23.306 Y75.471 E15.2953
G1 X24.436 Y73.904 E15.31953
G1 X25.377 Y73.163 E15.33455
G1 X27.724 Y72.047 E15.36714
G0 F15000 X27.814 Y72.447
G1 F1800 X104.655 Y72.448 E16.33075
G1 X106.778 Y73.08 E16.35853
G1 X107.39 Y73.45 E16.3675
G1 X108.63 Y74.653 E16.38917
G1 X109.535 Y76.097 E16.41054
G1 X110.042 Y77.794 E16.43275
G1 X110.042 Y135.048 E17.15073
G1 X109.638 Y136.714 E17.17223
G1 X108.526 Y138.493 E17.19854
G1 X106.846 Y139.888 E17.22593
G1 X104.603 Y140.531 E17.25519
G1 X27.812 Y140.532 E18.21817
G1 X25.602 Y139.477 E18.24888
G1 X24.755 Y138.829 E18.26226
G1 X23.663 Y137.32 E18.28562
G1 X22.957 Y135.376 E18.31155
G1 X22.958 Y77.601 E19.03607
G1 X23.663 Y75.659 E19.06198
G1 X24.728 Y74.183 E19.08481
G1 X25.588 Y73.506 E19.09853
G1 X27.814 Y72.447 E19.12944
G0 F15000 X27.904 Y72.847
G1 F1800 X104.598 Y72.848 E20.09122
G1 X106.616 Y73.449 E20.11762
G1 X107.111 Y73.737 E20.1248
G1 X108.318 Y74.908 E20.14589
G1 X109.168 Y76.264 E20.16596
G1 X109.642 Y77.851 E20.18673
G1 X109.642 Y134.999 E20.90339
G1 X109.264 Y136.558 E20.9235
G1 X108.222 Y138.225 E20.94816
G1 X106.655 Y139.526 E20.9737
G1 X104.545 Y140.131 E21.00122
G1 X27.902 Y140.132 E21.96236
G1 X25.813 Y139.135 E21.99138
G1 X25.043 Y138.546 E22.00354
G1 X24.021 Y137.133 E22.02541
G1 X23.357 Y135.305 E22.0498
G1 X23.358 Y77.672 E22.77254
G1 X24.021 Y75.846 E22.7969
G1 X25.02 Y74.462 E22.8183
G1 X25.799 Y73.849 E22.83074
G1 X27.904 Y72.847 E22.85997
G0 F15000 X27.994 Y73.247
G1 F1800 X104.541 Y73.248 E23.8199
G1 X106.502 Y73.832 E23.84556
G1 X106.832 Y74.024 E23.85035
G1 X108.006 Y75.163 E23.87086
G1 X108.801 Y76.431 E23.88963
G1 X109.242 Y77.908 E23.90896
G1 X109.242 Y134.95 E24.62428
G1 X108.89 Y136.402 E24.64302
G1 X107.917 Y137.958 E24.66603
G1 X106.463 Y139.165 E24.68973
G1 X104.491 Y139.731 E24.71546
G1 X27.992 Y139.732 E25.67479
G1 X26.024 Y138.793 E25.70213
G1 X25.331 Y138.263 E25.71307
G1 X24.379 Y136.946 E25.73345
G1 X23.757 Y135.234 E25.75629
G1 X23.758 Y77.743 E26.47725
G1 X24.379 Y76.033 E26.50006
G1 X25.31 Y74.743 E26.52001
G1 X26.012 Y74.19 E26.53122
G1 X27.994 Y73.247 E26.55875
G0 F15000 X28.084 Y73.647
G1 F1800 X104.484 Y73.648 E27.51683
G1 X106.388 Y74.215 E27.54174
G1 X106.553 Y74.311 E27.54414
G1 X107.694 Y75.418 E27.56407
G1 X108.433 Y76.597 E27.58152
G1 X108.842 Y77.966 E27.59944
G1 X108.842 Y134.901 E28.31343
G1 X108.516 Y136.246 E28.33078
G1 X107.613 Y137.69 E28.35214
G1 X106.27 Y138.805 E28.37403
G1 X104.437 Y139.331 E28.39794
G1 X28.082 Y139.332 E29.35546
G1 X26.235 Y138.451 E29.38113
G1 X25.619 Y137.98 E29.39085
G1 X24.737 Y136.759 E29.40974
G1 X24.157 Y135.163 E29.43103
G1 X24.158 Y77.814 E30.15021
G1 X24.737 Y76.22 E30.17148
G1 X25.602 Y75.022 E30.19001
G1 X26.223 Y74.533 E30.19992
G1 X28.084 Y73.647 E30.22577
G0 F15000 X28.174 Y74.047
G1 F1800 X104.427 Y74.048 E31.18201
G1 X106.274 Y74.598 E31.20618
G1 X107.382 Y75.673 E31.22554
G1 X108.066 Y76.764 E31.24168
G1 X108.442 Y78.023 E31.25816
G1 X108.442 Y134.852 E31.97082
G1 X108.142 Y136.09 E31.98679
G1 X107.308 Y137.423 E32.00651
G1 X106.078 Y138.444 E32.02656
G1 X104.383 Y138.931 E32.04867
G1 X28.172 Y138.932 E33.00439
G1 X26.446 Y138.109 E33.02837
G1 X25.907 Y137.697 E33.03687
G1 X25.095 Y136.572 E33.05427
G1 X24.557 Y135.092 E33.07402
G1 X24.558 Y77.885 E33.79142
G1 X25.095 Y76.407 E33.81114
G1 X25.894 Y75.301 E33.82825
G1 X26.395 Y74.894 E33.83634
G1 X28.174 Y74.047 E33.86105
G0 F15000 X28.264 Y74.447
G1 F1800 X104.37 Y74.448 E34.81545
G1 X106.065 Y74.953 E34.83763
G1 X107.07 Y75.928 E34.85519
G1 X107.698 Y76.93 E34.87002
G1 X108.042 Y78.081 E34.88508
G1 X108.042 Y134.803 E35.5964
G1 X107.768 Y135.934 E35.61099
G1 X107.004 Y137.155 E35.62905
G1 X105.885 Y138.084 E35.64729
G1 X104.329 Y138.531 E35.66759
G1 X28.262 Y138.532 E36.6215
G1 X26.618 Y137.748 E36.64434
G1 X26.196 Y137.414 E36.65109
G1 X25.453 Y136.385 E36.66701
G1 X24.957 Y135.021 E36.68521
G1 X24.958 Y77.956 E37.40083
G1 X25.453 Y76.594 E37.419
G1 X26.188 Y75.576 E37.43474
G1 X26.567 Y75.255 E37.44097
G1 X28.264 Y74.447 E37.46454
G0 F15000 X28.354 Y74.847
G1 F1800 X104.313 Y74.848 E38.4171
G1 X105.857 Y75.308 E38.4373
G1 X106.756 Y76.18 E38.45301
G1 X107.331 Y77.097 E38.46658
G1 X107.642 Y78.138 E38.4802
G1 X107.642 Y134.754 E39.19019
G1 X107.394 Y135.778 E39.2034
G1 X106.7 Y136.887 E39.21981
G1 X105.692 Y137.724 E39.23624
G1 X104.275 Y138.131 E39.25473
G1 X28.352 Y138.132 E40.20683
G1 X26.79 Y137.387 E40.22853
G1 X26.52 Y137.18 E40.2328
G1 X25.811 Y136.198 E40.24799
G1 X25.357 Y134.95 E40.26464
G1 X25.358 Y78.027 E40.97848
G1 X25.811 Y76.781 E40.9951
G1 X26.487 Y75.845 E41.00958
G1 X26.739 Y75.616 E41.01385
G1 X28.354 Y74.847 E41.03628
G0 F15000 X28.444 Y75.247
G1 F1800 X104.256 Y75.248 E41.98699
G1 X105.649 Y75.663 E42.00522
G1 X106.442 Y76.432 E42.01907
G1 X106.963 Y77.263 E42.03137
G1 X107.242 Y78.196 E42.04358
G1 X107.242 Y134.705 E42.75223
G1 X107.02 Y135.622 E42.76406
G1 X106.396 Y136.619 E42.77881
G1 X105.499 Y137.364 E42.79343
G1 X104.221 Y137.731 E42.81011
G1 X28.442 Y137.732 E43.7604
G1 X26.962 Y137.026 E43.78097
G1 X26.81 Y136.899 E43.78345
G1 X26.169 Y136.011 E43.79718
G1 X25.757 Y134.879 E43.81229
G1 X25.758 Y78.098 E44.52435
G1 X26.169 Y76.968 E44.53943
G1 X26.811 Y76.079 E44.55318
G1 X26.963 Y75.952 E44.55566
G1 X28.444 Y75.247 E44.57623
G0 F15000 X28.534 Y75.647
G1 F1800 X104.199 Y75.648 E45.5251
G1 X105.441 Y76.018 E45.54135
G1 X106.128 Y76.684 E45.55335
G1 X106.595 Y77.429 E45.56437
G1 X106.842 Y78.254 E45.57517
G1 X106.842 Y134.656 E46.28248
G1 X106.646 Y135.466 E46.29293
G1 X106.092 Y136.351 E46.30602
G1 X105.306 Y137.004 E46.31883
G1 X104.167 Y137.331 E46.33369
G1 X28.532 Y137.332 E47.28219
G1 X27.134 Y136.665 E47.30161
G1 X26.527 Y135.824 E47.31462
G1 X26.157 Y134.808 E47.32818
G1 X26.158 Y78.169 E48.03845
G1 X26.527 Y77.155 E48.05198
G1 X27.135 Y76.313 E48.06501
G1 X28.534 Y75.647 E48.08444
G0 F15000 X28.624 Y76.047
G1 F1800 X104.142 Y76.048 E49.03146
G1 X105.233 Y76.373 E49.04574
G1 X105.814 Y76.936 E49.05588
G1 X106.227 Y77.595 E49.06563
G1 X106.442 Y78.312 E49.07502
G1 X106.442 Y134.607 E49.78098
G1 X106.272 Y135.31 E49.79005
G1 X105.788 Y136.083 E49.80149
G1 X105.113 Y136.644 E49.8125
G1 X104.113 Y136.931 E49.82554
G1 X28.622 Y136.932 E50.77223
G1 X27.398 Y136.348 E50.78923
G1 X26.885 Y135.637 E50.80023
G1 X26.557 Y134.737 E50.81224
G1 X26.558 Y78.24 E51.52073
G1 X26.885 Y77.342 E51.53272
G1 X27.399 Y76.63 E51.54373
G1 X28.624 Y76.047 E51.56074
G0 F15000 X28.714 Y76.447
G1 F1800 X104.085 Y76.448 E52.50593
G1 X105.024 Y76.728 E52.51821
G1 X105.48 Y77.156 E52.52606
G1 X105.844 Y77.71 E52.53437
G1 X106.042 Y78.37 E52.54301
G1 X106.042 Y134.607 E53.24824
G1 X105.898 Y135.154 E53.25534
G1 X105.484 Y135.815 E53.26512
G1 X104.92 Y136.284 E53.27432
G1 X104.059 Y136.531 E53.28555
G1 X28.712 Y136.532 E54.23043
G1 X27.662 Y136.031 E54.24502
G1 X27.261 Y135.5 E54.25336
G1 X26.957 Y134.666 E54.26449
G1 X26.958 Y78.311 E54.97121
G1 X27.261 Y77.479 E54.98231
G1 X27.663 Y76.947 E54.99067
G1 X28.714 Y76.447 E55.00527
G0 F15000 X28.804 Y76.847
G1 F1800 X104.028 Y76.848 E55.9486
G1 X104.818 Y77.084 E55.95894
G1 X105.146 Y77.376 E55.96445
G1 X105.51 Y77.93 E55.97276
G1 X105.642 Y78.37 E55.97852
G1 X105.642 Y134.607 E56.68376
G1 X105.559 Y134.942 E56.68808
G1 X105.145 Y135.603 E56.69787
G1 X104.73 Y135.922 E56.70443
G1 X104.001 Y136.131 E56.71394
G1 X28.802 Y136.132 E57.65696
G1 X27.922 Y135.712 E57.66919
G1 X27.637 Y135.363 E57.67484
G1 X27.357 Y134.595 E57.68509
G1 X27.358 Y78.382 E58.39002
G1 X27.637 Y77.616 E58.40025
G1 X27.923 Y77.266 E58.40592
G1 X28.804 Y76.847 E58.41815
G0 F15000 X28.894 Y77.647
G1 F1800 X104.028 Y77.648 E59.36036
G1 X104.478 Y77.816 E59.36638
G1 X104.842 Y78.37 E59.37469
G1 X104.842 Y134.607 E60.07993
G1 X104.477 Y135.163 E60.08827
G1 X104.001 Y135.331 E60.0946
G1 X28.892 Y135.332 E61.03649
G1 X28.369 Y135.04 E61.044
G1 X28.157 Y134.595 E61.05019
G1 X28.158 Y78.382 E61.75512
G1 X28.369 Y77.939 E61.76127
G1 X28.894 Y77.647 E61.7688
G0 F15000 X28.894 Y77.247
G1 F1800 X104.028 Y77.248 E62.71101
G1 X104.618 Y77.441 E62.7188
G1 X104.812 Y77.596 E62.72191
G1 X105.176 Y78.15 E62.73022
G1 X105.242 Y78.37 E62.7331
G1 X105.242 Y134.607 E63.43834
G1 X105.176 Y134.827 E63.44122
G1 X104.811 Y135.383 E63.44956
G1 X104.61 Y135.54 E63.45276
G1 X104.001 Y135.731 E63.46076
G1 X28.892 Y135.732 E64.40266
G1 X28.174 Y135.389 E64.41263
G1 X28.008 Y135.212 E64.41568
G1 X27.757 Y134.595 E64.42403
G1 X27.758 Y78.382 E65.12896
G1 X28.008 Y77.767 E65.13729
G1 X28.175 Y77.589 E65.14035
G1 X28.894 Y77.247 E65.15033
G1 F1500 E58.65033
G0 F15000 X29.426 Y74.808
G0 X104.406 Y74.809
G0 X121.358 Y76.319
G1 F1500 E65.15033
G1 F1800 X122.233 Y73.909 E65.18249
G1 X123.562 Y72.065 E65.21099
G1 X124.742 Y71.136 E65.22982
G1 X127.454 Y69.847 E65.26748
G1 X205.548 Y69.848 E66.24681
G1 X208.242 Y71.135 E66.28425
G1 X209.401 Y72.021 E66.30254
G1 X210.767 Y73.908 E66.33175
G1 X211.643 Y76.32 E66.36394
G1 X211.643 Y97.649 E66.63141
G1 X211.671 Y101.481 E66.67946
G1 X211.67 Y103.6 E66.70604
G1 X211.121 Y105.458 E66.73033
G1 X210.672 Y106.256 E66.74182
G1 X209.101 Y107.873 E66.77009
G1 X207.55 Y108.845 E66.79304
G1 X205.496 Y109.451 E66.8199
G1 X183.755 Y109.451 E67.09254
G1 X183.755 Y123.491 E67.26861
G1 X205.815 Y123.491 E67.54525
G1 X207.767 Y124.068 E67.57077
G1 X208.39 Y124.416 E67.57972
G1 X210.069 Y126.036 E67.60898
G1 X211.055 Y127.601 E67.63217
G1 X211.67 Y129.667 E67.65921
G1 X211.672 Y131.733 E67.68511
G1 X211.625 Y134.753 E67.72299
G1 X210.74 Y137.124 E67.75473
G1 X209.532 Y138.785 E67.78048
G1 X208.361 Y139.791 E67.79984
G1 X205.546 Y141.132 E67.83895
G1 X127.45 Y141.131 E68.8183
G1 X124.758 Y139.845 E68.85571
G1 X123.599 Y138.959 E68.87401
G1 X122.233 Y137.072 E68.90322
G1 X121.357 Y134.66 E68.9354
G1 X121.358 Y76.319 E69.66702
G1 F1500 E63.16702
G0 F15000 X122.59 Y74.097
G1 F1500 E69.66702
G1 F1800 X123.854 Y72.344 E69.69412
G1 X124.953 Y71.479 E69.71166
G1 X127.544 Y70.247 E69.74764
G1 X205.458 Y70.248 E70.72471
G1 X208.031 Y71.477 E70.76047
G1 X209.113 Y72.304 E70.77754
G1 X210.409 Y74.095 E70.80527
G1 X211.243 Y76.391 E70.8359
G1 X211.243 Y97.649 E71.10248
G1 X211.271 Y101.481 E71.15054
G1 X211.27 Y103.541 E71.17637
G1 X210.75 Y105.301 E71.19939
G1 X210.349 Y106.014 E71.20965
G1 X208.846 Y107.561 E71.23669
G1 X207.386 Y108.476 E71.2583
G1 X205.437 Y109.051 E71.28378
G1 X183.355 Y109.051 E71.5607
G1 X183.355 Y123.891 E71.7468
G1 X205.756 Y123.891 E72.02772
G1 X207.654 Y124.452 E72.05254
G1 X208.149 Y124.74 E72.05972
G1 X209.759 Y126.293 E72.08777
G1 X210.688 Y127.767 E72.10962
G1 X211.27 Y129.724 E72.13522
G1 X211.272 Y131.727 E72.16034
G1 X211.226 Y134.677 E72.19734
G1 X210.384 Y136.933 E72.22754
G1 X209.235 Y138.513 E72.25204
G1 X208.141 Y139.453 E72.27012
G1 X205.456 Y140.732 E72.30742
G1 X127.54 Y140.731 E73.28452
G1 X124.969 Y139.503 E73.32025
G1 X123.887 Y138.676 E73.33732
G1 X122.591 Y136.885 E73.36505
G1 X121.757 Y134.589 E73.39568
G1 X121.758 Y76.389 E74.12553
G1 X122.59 Y74.097 E74.15611
G0 F15000 X122.948 Y74.284
G1 F1800 X124.144 Y72.625 E74.18175
G1 X125.166 Y71.82 E74.19807
G1 X127.634 Y70.647 E74.23234
G1 X205.368 Y70.648 E75.20715
G1 X207.82 Y71.819 E75.24123
G1 X208.823 Y72.586 E75.25706
G1 X210.052 Y74.284 E75.28335
G1 X210.843 Y76.462 E75.3124
G1 X210.843 Y97.649 E75.5781
G1 X210.871 Y101.481 E75.62615
G1 X210.87 Y103.482 E75.65125
G1 X210.379 Y105.144 E75.67298
G1 X210.026 Y105.772 E75.68201
G1 X208.591 Y107.249 E75.70784
G1 X207.222 Y108.107 E75.7281
G1 X205.378 Y108.651 E75.75221
G1 X182.955 Y108.651 E76.0334
G1 X182.955 Y124.291 E76.22953
G1 X205.697 Y124.291 E76.51473
G1 X207.541 Y124.836 E76.53884
G1 X207.871 Y125.028 E76.54363
G1 X209.449 Y126.55 E76.57112
G1 X210.321 Y127.933 E76.59162
G1 X210.87 Y129.781 E76.6158
G1 X210.872 Y131.721 E76.64013
G1 X210.827 Y134.601 E76.67625
G1 X210.028 Y136.742 E76.7049
G1 X208.938 Y138.241 E76.72815
G1 X207.921 Y139.115 E76.74496
G1 X205.366 Y140.332 E76.78045
G1 X127.63 Y140.331 E77.75529
G1 X125.18 Y139.161 E77.78934
G1 X124.177 Y138.394 E77.80517
G1 X122.948 Y136.696 E77.83146
G1 X122.157 Y134.518 E77.86052
G1 X122.158 Y76.46 E78.58859
G1 X122.948 Y74.284 E78.61762
G0 F15000 X123.306 Y74.471
G1 F1800 X124.436 Y72.904 E78.64184
G1 X125.377 Y72.163 E78.65686
G1 X127.724 Y71.047 E78.68945
G1 X205.278 Y71.048 E79.66201
G1 X207.609 Y72.161 E79.6944
G1 X208.535 Y72.869 E79.70902
G1 X209.694 Y74.471 E79.73382
G1 X210.443 Y76.533 E79.76133
G1 X210.443 Y97.649 E80.02613
G1 X210.471 Y101.481 E80.07419
G1 X210.47 Y103.423 E80.09854
G1 X209.995 Y105.031 E80.11957
G1 X209.704 Y105.529 E80.1268
G1 X208.336 Y106.937 E80.15142
G1 X207.058 Y107.738 E80.17033
G1 X205.319 Y108.251 E80.19307
