;START_OF_HEADER
;HEADER_VERSION:0.1
;FLAVOR:Griffin
;GENERATOR.NAME:Cura_SteamEngine
;GENERATOR.VERSION:5.5.0
;GENERATOR.BUILD_DATE:2023-10-25
;TARGET_MACHINE.NAME:Ultimaker 3 Extended
;EXTRUDER_TRAIN.0.INITIAL_TEMPERATURE:205
;EXTRUDER_TRAIN.0.MATERIAL.VOLUME_USED:20499
;EXTRUDER_TRAIN.0.MATERIAL.GUID:506c9f0d-e3aa-4bd4-b2d2-23e2425b1aa9
;EXTRUDER_TRAIN.0.NOZZLE.DIAMETER:0.4
;EXTRUDER_TRAIN.0.NOZZLE.NAME:AA 0.4
;BUILD_PLATE.INITIAL_TEMPERATURE:60
;PRINT.TIME:8640
;PRINT.GROUPS:1
;PRINT.SIZE.MIN.X:9
;PRINT.SIZE.MIN.Y:6
;PRINT.SIZE.MIN.Z:0.2
;PRINT.SIZE.MAX.X:149.658
;PRINT.SIZE.MAX.Y:175.672
;PRINT.SIZE.MAX.Z:24.2
;SLICE_UUID:67d4e8b7-7835-4323-a358-c21759f4b190
;END_OF_HEADER
;Generated with Cura_SteamEngine 5.5.0
T0
M82 ;absolute extrusion mode

G92 E0
M190 S60
M109 S205
G0 F15000 X9 Y6 Z2
G280
G1 F1500 E-6.5
;LAYER_COUNT:115
;LAYER:0
M106 S255
M204 S1000
M205 X20 Y20
G1 F600 Z2.2
G0 F15000 X83.899 Y43.847 Z2.2
;TYPE:SKIRT
G1 F600 Z0.2
G1 F1500 E0
G1 F1800 X85.536 Y41.35 E0.03744
G1 X88.273 Y39.699 E0.07753
G1 X90.258 Y39.402 E0.1027
G1 X143.048 Y39.361 E0.7647
G1 X145.398 Y40.05 E0.79541
G1 X147.33 Y41.287 E0.82418
G1 X149.109 Y43.673 E0.8615
G1 X149.637 Y46.289 E0.89497
G1 X149.636 Y98.961 E1.5555
G1 X149.101 Y101.152 E1.58378
G1 X147.464 Y103.649 E1.62122
G1 X144.727 Y105.3 E1.66131
G1 X142.742 Y105.597 E1.68648
G1 X89.982 Y105.635 E2.34811
G1 X87.353 Y104.898 E2.38235
G1 X84.917 Y102.96 E2.42138
G1 X83.634 Y100.383 E2.45748
G1 X83.408 Y98.838 E2.47707
G1 X83.364 Y46.038 E3.1392
G1 X83.899 Y43.847 E3.16748
G0 F15000 X84.272 Y44.008
G1 F1800 X85.821 Y41.645 E3.20291
G1 X88.41 Y40.083 E3.24083
G1 X90.317 Y39.798 E3.26501
G1 X142.991 Y39.761 E3.92556
G1 X145.23 Y40.417 E3.95482
G1 X147.053 Y41.585 E3.98197
G1 X148.735 Y43.841 E4.01726
G1 X149.237 Y46.328 E4.04908
G1 X149.236 Y98.911 E4.70849
G1 X148.728 Y100.991 E4.73534
G1 X147.179 Y103.354 E4.77077
G1 X144.59 Y104.916 E4.80869
G1 X142.683 Y105.201 E4.83287
G1 X90.036 Y105.235 E5.49308
G1 X87.539 Y104.535 E5.5256
G1 X85.235 Y102.702 E5.56252
G1 X84.021 Y100.263 E5.59669
G1 X83.804 Y98.78 E5.61548
G1 X83.764 Y46.088 E6.27626
G1 X84.272 Y44.008 E6.30311
G0 F15000 X84.645 Y44.167
G1 F1800 X86.104 Y41.942 E6.33648
G1 X88.549 Y40.467 E6.37229
G1 X90.376 Y40.194 E6.39545
G1 X142.933 Y40.161 E7.05454
G1 X145.062 Y40.785 E7.08236
G1 X146.776 Y41.883 E7.10789
G1 X148.361 Y44.009 E7.14114
G1 X148.837 Y46.367 E7.17131
G1 X148.836 Y98.861 E7.8296
G1 X148.355 Y100.832 E7.85504
G1 X146.896 Y103.057 E7.88841
G1 X144.451 Y104.532 E7.92422
G1 X142.624 Y104.805 E7.94738
G1 X90.09 Y104.835 E8.60618
G1 X87.725 Y104.172 E8.63698
G1 X85.553 Y102.444 E8.67179
G1 X84.408 Y100.143 E8.70402
G1 X84.2 Y98.722 E8.72203
G1 X84.164 Y46.138 E9.38145
G1 X84.645 Y44.167 E9.40689
G0 F15000 X85.018 Y44.328
G1 F1800 X86.389 Y42.237 E9.43825
G1 X88.686 Y40.851 E9.47189
G1 X90.435 Y40.59 E9.49407
G1 X142.875 Y40.561 E10.15168
G1 X144.894 Y41.153 E10.17807
G1 X146.499 Y42.181 E10.20197
G1 X147.987 Y44.177 E10.23319
G1 X148.437 Y46.406 E10.26171
G1 X148.436 Y98.811 E10.91889
G1 X147.982 Y100.671 E10.9429
G1 X146.611 Y102.762 E10.97425
G1 X144.314 Y104.148 E11.00789
G1 X142.565 Y104.409 E11.03007
G1 X90.144 Y104.435 E11.68745
G1 X87.911 Y103.809 E11.71653
G1 X85.871 Y102.186 E11.74922
G1 X84.795 Y100.023 E11.77952
G1 X84.596 Y98.664 E11.79674
G1 X84.564 Y46.188 E12.45481
G1 X85.018 Y44.328 E12.47882
G0 F15000 X85.391 Y44.489
G1 F1800 X86.673 Y42.533 E12.50815
G1 X88.825 Y41.235 E12.53966
G1 X90.494 Y40.986 E12.56083
G1 X142.818 Y40.961 E13.21699
G1 X144.726 Y41.52 E13.24192
G1 X146.222 Y42.479 E13.26421
G1 X147.613 Y44.345 E13.29339
G1 X148.037 Y46.445 E13.32026
G1 X148.036 Y98.761 E13.97632
G1 X147.609 Y100.51 E13.9989
G1 X146.327 Y102.466 E14.02823
G1 X144.175 Y103.764 E14.05974
G1 X142.506 Y104.013 E14.0809
G1 X90.198 Y104.035 E14.73687
G1 X88.097 Y103.446 E14.76423
G1 X86.189 Y101.928 E14.7948
G1 X85.182 Y99.903 E14.82316
G1 X84.992 Y98.606 E14.8396
G1 X84.964 Y46.238 E15.49632
G1 X85.391 Y44.489 E15.51889
G0 F15000 X85.764 Y44.648
G1 F1800 X86.957 Y42.829 E15.54617
G1 X88.962 Y41.619 E15.57554
G1 X90.553 Y41.382 E15.59571
G1 X142.76 Y41.361 E16.25041
G1 X144.558 Y41.888 E16.2739
G1 X145.945 Y42.777 E16.29456
G1 X147.239 Y44.513 E16.32172
G1 X147.637 Y46.484 E16.34693
G1 X147.636 Y98.711 E17.00188
G1 X147.236 Y100.351 E17.02305
G1 X146.043 Y102.17 E17.05033
G1 X144.038 Y103.38 E17.07969
G1 X142.447 Y103.617 E17.09987
G1 X90.252 Y103.635 E17.75441
G1 X88.283 Y103.083 E17.78005
G1 X86.507 Y101.67 E17.80852
G1 X85.569 Y99.783 E17.83494
G1 X85.388 Y98.548 E17.85059
G1 X85.364 Y46.288 E18.50595
G1 X85.764 Y44.648 E18.52712
G0 F15000 X86.137 Y44.809
G1 F1800 X87.241 Y43.125 E18.55238
G1 X89.101 Y42.003 E18.57962
G1 X90.612 Y41.778 E18.59877
G1 X142.703 Y41.761 E19.25201
G1 X144.389 Y42.255 E19.27405
G1 X145.668 Y43.075 E19.2931
G1 X146.865 Y44.681 E19.31822
G1 X147.237 Y46.523 E19.34178
G1 X147.236 Y98.661 E19.99561
G1 X146.863 Y100.19 E20.01535
G1 X145.759 Y101.874 E20.0406
G1 X143.899 Y102.996 E20.06784
G1 X142.388 Y103.221 E20.087
G1 X90.306 Y103.235 E20.74013
G1 X88.469 Y102.72 E20.76405
G1 X86.825 Y101.412 E20.7904
G1 X85.956 Y99.663 E20.81489
G1 X85.784 Y98.49 E20.82975
G1 X85.764 Y46.338 E21.48376
G1 X86.137 Y44.809 E21.5035
G0 F15000 X86.51 Y44.97
G1 F1800 X87.525 Y43.421 E21.52672
G1 X89.24 Y42.387 E21.55183
G1 X90.671 Y42.174 E21.56998
G1 X142.645 Y42.161 E22.22175
G1 X144.221 Y42.623 E22.24234
G1 X145.391 Y43.373 E22.25977
G1 X146.491 Y44.849 E22.28286
G1 X146.837 Y46.562 E22.30477
G1 X146.836 Y98.611 E22.95749
G1 X146.49 Y100.029 E22.97579
G1 X145.475 Y101.578 E22.99901
G1 X143.76 Y102.612 E23.02413
G1 X142.329 Y102.825 E23.04227
G1 X90.36 Y102.835 E23.69398
G1 X88.655 Y102.357 E23.71619
G1 X87.143 Y101.154 E23.74042
G1 X86.343 Y99.543 E23.76297
G1 X86.18 Y98.432 E23.77705
G1 X86.164 Y46.388 E24.42971
G1 X86.51 Y44.97 E24.44801
G0 F15000 X86.883 Y45.129
G1 F1800 X87.809 Y43.717 E24.46918
G1 X89.377 Y42.771 E24.49215
G1 X90.73 Y42.57 E24.5093
G1 X142.588 Y42.561 E25.15962
G1 X144.052 Y42.99 E25.17875
G1 X145.114 Y43.671 E25.19457
G1 X146.117 Y45.017 E25.21562
G1 X146.437 Y46.601 E25.23589
G1 X146.436 Y98.561 E25.88749
G1 X146.117 Y99.87 E25.90438
G1 X145.191 Y101.282 E25.92556
G1 X143.623 Y102.228 E25.94852
G1 X142.27 Y102.429 E25.96568
G1 X90.414 Y102.435 E26.61597
G1 X88.841 Y101.994 E26.63646
G1 X87.461 Y100.896 E26.65857
G1 X86.73 Y99.423 E26.67919
G1 X86.576 Y98.374 E26.69249
G1 X86.564 Y46.438 E27.34378
G1 X86.883 Y45.129 E27.36068
G0 F15000 X87.256 Y45.29
G1 F1800 X88.093 Y44.013 E27.37983
G1 X89.516 Y43.155 E27.40067
G1 X90.789 Y42.966 E27.4168
G1 X142.53 Y42.961 E28.06566
G1 X143.884 Y43.358 E28.08335
G1 X144.837 Y43.969 E28.09755
G1 X145.743 Y45.185 E28.11656
G1 X146.037 Y46.64 E28.13518
G1 X146.036 Y98.511 E28.78566
G1 X145.744 Y99.709 E28.80112
G1 X144.907 Y100.986 E28.82027
G1 X143.484 Y101.844 E28.84111
G1 X142.211 Y102.033 E28.85725
G1 X90.468 Y102.035 E29.50612
G1 X89.027 Y101.631 E29.52489
G1 X87.779 Y100.638 E29.54489
G1 X87.117 Y99.303 E29.56358
G1 X86.972 Y98.316 E29.57609
G1 X86.964 Y46.488 E30.22603
G1 X87.256 Y45.29 E30.24149
G0 F15000 X87.629 Y45.449
G1 F1800 X88.377 Y44.309 E30.25859
G1 X89.654 Y43.538 E30.2773
G1 X90.789 Y43.366 E30.29169
G1 X142.473 Y43.361 E30.93983
G1 X143.715 Y43.725 E30.95606
G1 X144.56 Y44.267 E30.96865
G1 X145.369 Y45.353 E30.98563
G1 X145.637 Y46.679 E31.0026
G1 X145.636 Y98.461 E31.65196
G1 X145.371 Y99.55 E31.66602
G1 X144.623 Y100.69 E31.68312
G1 X143.346 Y101.461 E31.70182
G1 X142.211 Y101.633 E31.71622
G1 X90.522 Y101.635 E32.36442
G1 X89.213 Y101.268 E32.38147
G1 X88.097 Y100.38 E32.39935
G1 X87.503 Y99.181 E32.41613
G1 X87.372 Y98.316 E32.4271
G1 X87.364 Y46.538 E33.07642
G1 X87.629 Y45.449 E33.09047
G0 F15000 X88.002 Y45.61
G1 F1800 X88.661 Y44.605 E33.10554
G1 X89.795 Y43.921 E33.12215
G1 X90.789 Y43.766 E33.13477
G1 X142.416 Y43.761 E33.78219
G1 X143.546 Y44.092 E33.79695
G1 X144.283 Y44.565 E33.80794
G1 X144.995 Y45.521 E33.82288
G1 X145.237 Y46.718 E33.8382
G1 X145.236 Y98.411 E34.48645
G1 X144.998 Y99.389 E34.49907
G1 X144.339 Y100.394 E34.51414
G1 X143.205 Y101.078 E34.53075
G1 X142.211 Y101.233 E34.54336
G1 X90.576 Y101.235 E35.19089
G1 X89.399 Y100.905 E35.20622
G1 X88.416 Y100.123 E35.22197
G1 X87.889 Y99.058 E35.23687
G1 X87.772 Y98.316 E35.24629
G1 X87.764 Y46.588 E35.89498
G1 X88.002 Y45.61 E35.9076
G0 F15000 X88.375 Y45.771
G1 F1800 X88.946 Y44.9 E35.92066
G1 X89.933 Y44.304 E35.93512
G1 X90.789 Y44.166 E35.94599
G1 X142.358 Y44.161 E36.59269
G1 X143.378 Y44.46 E36.60602
G1 X144.006 Y44.863 E36.61537
G1 X144.621 Y45.689 E36.62829
G1 X144.837 Y46.757 E36.64195
G1 X144.836 Y98.361 E37.28909
G1 X144.625 Y99.228 E37.30028
G1 X144.054 Y100.099 E37.31334
G1 X143.067 Y100.695 E37.3278
G1 X142.211 Y100.833 E37.33867
G1 X90.63 Y100.835 E37.98551
G1 X89.585 Y100.542 E37.99912
G1 X88.734 Y99.865 E38.01276
G1 X88.247 Y98.881 E38.02653
G1 X88.169 Y98.266 E38.0343
G1 X88.164 Y46.638 E38.68174
G1 X88.375 Y45.771 E38.69293
G0 F15000 X88.748 Y45.932
G1 F1800 X89.23 Y45.196 E38.70396
G1 X90.076 Y44.686 E38.71635
G1 X90.789 Y44.566 E38.72541
G1 X142.301 Y44.561 E39.37139
G1 X143.209 Y44.827 E39.38326
G1 X143.729 Y45.161 E39.39101
G1 X144.247 Y45.857 E39.40189
G1 X144.437 Y46.796 E39.4139
G1 X144.436 Y98.311 E40.05992
G1 X144.252 Y99.067 E40.06968
G1 X143.77 Y99.803 E40.08071
G1 X142.924 Y100.313 E40.0931
G1 X142.211 Y100.433 E40.10217
G1 X90.684 Y100.435 E40.74833
G1 X89.771 Y100.179 E40.76022
G1 X89.053 Y99.607 E40.77174
G1 X88.636 Y98.765 E40.78352
G1 X88.566 Y98.215 E40.79047
G1 X88.564 Y46.688 E41.43664
G1 X88.748 Y45.932 E41.4464
G0 F15000 X89.121 Y46.093
G1 F1800 X89.515 Y45.491 E41.45542
G1 X90.216 Y45.068 E41.46569
G1 X90.789 Y44.966 E41.47299
G1 X142.243 Y44.961 E42.11824
G1 X143.096 Y45.211 E42.12938
G1 X143.408 Y45.4 E42.13396
G1 X143.873 Y46.025 E42.14373
G1 X144.037 Y46.835 E42.15409
G1 X144.036 Y98.261 E42.79899
G1 X143.879 Y98.906 E42.80732
G1 X143.485 Y99.508 E42.81634
G1 X142.784 Y99.931 E42.82661
G1 X142.211 Y100.033 E42.83391
G1 X90.738 Y100.035 E43.4794
G1 X89.957 Y99.816 E43.48957
G1 X89.371 Y99.349 E43.49896
G1 X89.025 Y98.65 E43.50875
G1 X88.963 Y98.164 E43.51489
G1 X88.964 Y46.738 E44.15979
G1 X89.121 Y46.093 E44.16812
G0 F15000 X89.51 Y46.188
G1 F1800 X89.841 Y45.723 E44.17527
G1 X90.405 Y45.421 E44.1833
G1 X90.842 Y45.363 E44.18882
G1 X142.185 Y45.361 E44.83268
G1 X142.983 Y45.595 E44.84311
G1 X143.184 Y45.731 E44.84616
G1 X143.499 Y46.191 E44.85315
G1 X143.637 Y46.835 E44.86141
G1 X143.636 Y98.211 E45.50568
G1 X143.49 Y98.811 E45.51343
G1 X143.159 Y99.276 E45.52058
G1 X142.595 Y99.578 E45.52861
G1 X142.158 Y99.636 E45.53413
G1 X90.788 Y99.635 E46.17833
G1 X90.188 Y99.489 E46.18608
G1 X89.723 Y99.16 E46.19322
G1 X89.421 Y98.597 E46.20123
G1 X89.363 Y98.164 E46.20671
G1 X89.364 Y46.788 E46.85098
G1 X89.51 Y46.188 E46.85873
G0 F15000 X90.285 Y46.387
G1 F1800 X90.521 Y46.212 E46.86241
G1 X90.842 Y46.163 E46.86648
G1 X142.127 Y46.161 E47.50962
G1 X142.613 Y46.285 E47.51591
G1 X142.788 Y46.52 E47.51958
G1 X142.837 Y46.835 E47.52358
G1 X142.836 Y98.161 E48.16723
G1 X142.715 Y98.612 E48.17308
G1 X142.479 Y98.787 E48.17677
G1 X142.158 Y98.836 E48.18084
G1 X90.838 Y98.835 E48.82441
G1 X90.387 Y98.714 E48.83027
G1 X90.212 Y98.479 E48.83394
G1 X90.163 Y98.164 E48.83794
G1 X90.164 Y46.838 E49.48159
G1 X90.285 Y46.387 E49.48744
G0 F15000 X89.899 Y46.283
G1 F1800 X90.047 Y46.066 E49.49074
G1 X90.461 Y45.817 E49.49679
G1 X90.842 Y45.763 E49.50162
G1 X142.127 Y45.761 E50.14475
G1 X142.87 Y45.979 E50.15446
G1 X143.109 Y46.281 E50.15929
G1 X143.237 Y46.835 E50.16642
G1 X143.236 Y98.161 E50.81007
G1 X143.101 Y98.716 E50.81723
G1 X142.953 Y98.933 E50.82053
G1 X142.539 Y99.182 E50.82658
G1 X142.158 Y99.236 E50.83141
G1 X90.838 Y99.235 E51.47498
G1 X90.283 Y99.1 E51.48215
G1 X90.066 Y98.953 E51.48543
G1 X89.817 Y98.54 E51.49148
G1 X89.763 Y98.164 E51.49624
G1 X89.764 Y46.838 E52.13989
G1 X89.899 Y46.283 E52.14705
G1 F1500 E45.64705
G0 F15000 X87.322 Y46.603
G0 X87.322 Y98.364
G0 X87.508 Y99.566
G0 X90.057 Y109.346
G1 F1500 E52.14705
G1 F1800 X95.406 Y109.342 E52.21413
G1 X100.918 Y109.361 E52.28325
G1 X132.082 Y109.361 E52.67406
G1 X137.388 Y109.344 E52.7406
G1 X143.333 Y109.348 E52.81515
G1 X145.692 Y110.257 E52.84686
G1 X147.43 Y111.436 E52.87319
G1 X148.945 Y113.488 E52.90518
G1 X149.653 Y116.045 E52.93845
G1 X149.658 Y121.406 E53.00568
G1 X149.639 Y126.917 E53.07479
G1 X149.639 Y158.1 E53.46584
G1 X149.656 Y163.389 E53.53217
G1 X149.652 Y169.005 E53.60259
G1 X148.887 Y171.633 E53.63692
G1 X147.281 Y173.7 E53.66974
G1 X145.563 Y174.826 E53.6955
G1 X143.309 Y175.651 E53.7256
G1 X137.373 Y175.656 E53.80004
G1 X132.085 Y175.638 E53.86635
G1 X100.942 Y175.638 E54.2569
G1 X92.979 Y175.672 E54.35676
G1 X89.769 Y175.669 E54.39701
G1 X87.149 Y174.826 E54.43153
G1 X86.669 Y174.532 E54.43859
G1 X84.31 Y172.175 E54.48041
G1 X83.352 Y169.243 E54.51909
G1 X83.343 Y163.372 E54.59271
G1 X83.361 Y158.082 E54.65905
G1 X83.361 Y126.899 E55.0501
G1 X83.344 Y121.612 E55.1164
G1 X83.348 Y115.639 E55.1913
G1 X84.282 Y113.256 E55.2234
G1 X85.468 Y111.531 E55.24965
G1 X87.643 Y110.018 E55.28288
G1 X90.057 Y109.346 E55.3143
G1 F1500 E48.8143
G0 F15000 X85.758 Y111.816
G1 F1500 E55.3143
G1 F1800 X87.815 Y110.385 E55.34572
G1 X90.11 Y109.746 E55.3756
G1 X95.405 Y109.742 E55.442
G1 X100.917 Y109.761 E55.51112
G1 X132.083 Y109.761 E55.90196
G1 X137.388 Y109.744 E55.96848
G1 X143.259 Y109.748 E56.04211
G1 X145.504 Y110.613 E56.07228
G1 X147.148 Y111.728 E56.09719
G1 X148.58 Y113.668 E56.12743
G1 X149.253 Y116.098 E56.15905
G1 X149.258 Y121.405 E56.2256
G1 X149.239 Y126.916 E56.29471
G1 X149.239 Y158.1 E56.68577
G1 X149.256 Y163.389 E56.75209
G1 X149.252 Y168.948 E56.82181
G1 X148.525 Y171.447 E56.85444
G1 X147.005 Y173.402 E56.8855
G1 X145.383 Y174.465 E56.90982
G1 X143.236 Y175.251 E56.93849
G1 X137.374 Y175.256 E57.012
G1 X132.086 Y175.238 E57.07832
G1 X100.94 Y175.238 E57.4689
G1 X92.979 Y175.272 E57.56873
G1 X89.833 Y175.269 E57.60818
G1 X87.272 Y174.445 E57.64192
G1 X86.952 Y174.249 E57.64663
G1 X84.66 Y171.959 E57.68726
G1 X83.752 Y169.18 E57.72392
G1 X83.743 Y163.373 E57.79674
G1 X83.761 Y158.083 E57.86308
G1 X83.761 Y126.899 E58.25414
G1 X83.744 Y121.612 E58.32044
G1 X83.748 Y115.714 E58.3944
G1 X84.636 Y113.448 E58.42493
G1 X85.758 Y111.816 E58.44976
G0 F15000 X86.048 Y112.101
G1 F1800 X87.987 Y110.752 E58.47938
G1 X90.163 Y110.146 E58.50771
G1 X95.404 Y110.142 E58.57343
G1 X100.916 Y110.161 E58.64256
G1 X132.084 Y110.161 E59.03341
G1 X137.388 Y110.144 E59.09993
G1 X143.185 Y110.148 E59.17263
G1 X145.318 Y110.97 E59.20129
G1 X146.865 Y112.019 E59.22473
G1 X148.215 Y113.848 E59.25324
G1 X148.853 Y116.151 E59.28321
G1 X148.858 Y121.404 E59.34908
G1 X148.839 Y126.915 E59.41819
G1 X148.839 Y158.1 E59.80926
G1 X148.856 Y163.389 E59.87559
G1 X148.852 Y168.891 E59.94459
G1 X148.162 Y171.262 E59.97555
G1 X146.731 Y173.103 E60.00479
G1 X145.202 Y174.105 E60.02772
G1 X143.164 Y174.851 E60.05494
G1 X137.375 Y174.856 E60.12753
G1 X132.087 Y174.838 E60.19385
G1 X100.938 Y174.838 E60.58447
G1 X92.979 Y174.872 E60.68427
G1 X89.897 Y174.869 E60.72292
G1 X87.395 Y174.064 E60.75588
G1 X87.235 Y173.966 E60.75824
G1 X85.01 Y171.743 E60.79768
G1 X84.152 Y169.117 E60.83232
G1 X84.143 Y163.374 E60.90434
G1 X84.161 Y158.084 E60.97068
G1 X84.161 Y126.899 E61.36175
G1 X84.144 Y121.612 E61.42805
G1 X84.148 Y115.789 E61.50108
G1 X84.99 Y113.64 E61.53002
G1 X86.048 Y112.101 E61.55344
G0 F15000 X86.338 Y112.386
G1 F1800 X88.159 Y111.119 E61.58126
G1 X90.216 Y110.546 E61.60804
G1 X95.403 Y110.542 E61.67309
G1 X100.915 Y110.561 E61.74221
G1 X132.085 Y110.561 E62.13309
G1 X137.388 Y110.544 E62.19959
G1 X143.111 Y110.548 E62.27136
G1 X145.132 Y111.327 E62.29852
G1 X146.582 Y112.31 E62.32049
G1 X147.849 Y114.026 E62.34724
G1 X148.453 Y116.208 E62.37563
G1 X148.458 Y121.403 E62.44078
G1 X148.439 Y126.914 E62.50989
G1 X148.439 Y158.1 E62.90098
G1 X148.456 Y163.389 E62.9673
G1 X148.452 Y168.834 E63.03558
G1 X147.799 Y171.077 E63.06488
G1 X146.457 Y172.804 E63.09231
